X:2
T:You Took Advantage Of Me
C:Rodgers & Hart
L:1/4
M:C
I:linebreak $
K:Eb
"Eb" B/B/ E/D/"Eo" ^C c |"Fm" c B"Bb7" B2 |"Gm" B/B/ c/B/"Gbo" =A e |"Fm" e d/d/"Bb7" z f |$
"Bbm" f e/e/"Eb7" z B |"Ab" B A/A/"Db7" z/ E/ F |"G7" G"C7" G"F7" F/E/"Bb7" F ||1"Eb" E2"E" z2 :|2
"Eb" E2"Db7" z2 ||$"Cm6" e (3e/f/e/"Aø" d/d/ c |"G7" =B _d/c/"C7" z _B |"F7" =A _c/B/"Bb7" z F |
"Eb6" G2"Db7" z d |$"Cm6" e (3e/f/e/"Aø" d/d/ c |"G7" =B _d/c/"C7" z _B |
"F7" =A _c/B/"Bb7" z F |"Gm" B"Gb7" z"Fm" z"E7" "_D.C. al 3rd end." z ||3"Eb6" E4 |]

